X: 15306
T: Girls Of Farranfore, The
R: reel
M: 4/4
K: Eminor
dc|:B ~E3 GBdB|A (D{/F}ED) FGAc|B ~E3 GABd|{/e}dBAc B ~E3:|
e3 f {/a}gf{/g}fe|defg {/b}afdf|e^def {/a}gf{/g}fe|dBAc B ~E3|
e^def {/a}gf{/g}fe|defg {/b}afdf|g2 ba gfed|1 ((3ABc) Ac B ~E2 d:|2 ((3ABc) Ac B ~E2 ^c||
|:defg e^cdB|A (D{/F}ED) FAd^c|B ~E3 GABd|{/e}dBAc B ~E3|
((3B^cd) ef dz ((3 d^cB)|A (D{/F}ED) FAd^c|B ~E3 GABd|{/e}dBAc B ~E3|
e3 f {/a}gf{/g}fe|defg {/b}afdf|e^def gf{/g}fe|dBAc B ~E3|
e^def gf{/g}fe|defg {/b}afdf|gabg fa{/b}gf|1 ((3 efg) fa ~g3 e:|2 ((3 efg) fa g4||

